src/assets/icons/sax/IconTableSettings.svg

<svg width="20" height="20" viewBox="0 0 24 24" fill="none" xmlns="http://www.w3.org/2000/svg">
<path d="M22 11V9C22 4 20 2 15 2H9C4 2 2 4 2 9V15C2 20 4 22 9 22H10" stroke="currentColor" stroke-width="1.5" stroke-linecap="round" stroke-linejoin="round"/>
<path d="M2.03003 8.5H22" stroke="currentColor" stroke-width="1.5" stroke-linecap="round" stroke-linejoin="round"/>
<path d="M2.03003 15.5H8.52613H9.32422" stroke="currentColor" stroke-width="1.5" stroke-linecap="round" stroke-linejoin="round"/>
<path d="M8.51001 21.99V2.01001" stroke="currentColor" stroke-width="1.5" stroke-linecap="round" stroke-linejoin="round"/>
<path d="M15.51 2.01001V9.75754" stroke="currentColor" stroke-width="1.5" stroke-linecap="round" stroke-linejoin="round"/>
<path d="M16.72 18.5985C17.5981 18.5985 18.31 17.8866 18.31 17.0085C18.31 16.1303 17.5981 15.4185 16.72 15.4185C15.8418 15.4185 15.13 16.1303 15.13 17.0085C15.13 17.8866 15.8418 18.5985 16.72 18.5985Z" stroke="currentColor" stroke-width="1.5" stroke-miterlimit="10" stroke-linecap="round" stroke-linejoin="round"/>
<path d="M11.42 17.4686V16.5386C11.42 15.9886 11.87 15.5386 12.42 15.5386C13.38 15.5386 13.77 14.8586 13.29 14.0286C13.01 13.5486 13.18 12.9286 13.66 12.6586L14.57 12.1286C14.99 11.8786 15.53 12.0286 15.78 12.4486L15.84 12.5486C16.32 13.3786 17.1 13.3786 17.58 12.5486L17.64 12.4486C17.89 12.0286 18.43 11.8886 18.85 12.1286L19.76 12.6586C20.24 12.9386 20.41 13.5486 20.13 14.0286C19.65 14.8586 20.04 15.5386 21 15.5386C21.55 15.5386 22 15.9886 22 16.5386V17.4686C22 18.0186 21.55 18.4686 21 18.4686C20.04 18.4686 19.65 19.1486 20.13 19.9786C20.41 20.4586 20.24 21.0786 19.76 21.3486L18.85 21.8786C18.43 22.1286 17.89 21.9786 17.64 21.5586L17.58 21.4586C17.1 20.6286 16.32 20.6286 15.84 21.4586L15.78 21.5586C15.53 21.9786 14.99 22.1186 14.57 21.8786L13.66 21.3486C13.18 21.0686 13.01 20.4586 13.29 19.9786C13.77 19.1486 13.38 18.4686 12.42 18.4686C11.87 18.4786 11.42 18.0286 11.42 17.4686Z" stroke="currentColor" stroke-width="1.5" stroke-miterlimit="10" stroke-linecap="round" stroke-linejoin="round"/>
</svg>

<svg xmlns="http://www.w3.org/2000/svg" width="20" height="20" fill="none" viewBox="0 0 24 24">
  <path stroke="currentcolor" stroke-linecap="round" stroke-linejoin="round" stroke-width="1.5" d="M22 11V9c0-5-2-7-7-7H9C4 2 2 4 2 9v6c0 5 2 7 7 7h1M2.03 8.5H22m-19.97 7h7.3m-.82 6.49V2.01m7 0v7.75"/>
  <path stroke="currentcolor" stroke-linecap="round" stroke-linejoin="round" stroke-miterlimit="10" stroke-width="1.5" d="M16.72 18.6a1.59 1.59 0 1 0 0-3.18 1.59 1.59 0 0 0 0 3.18"/>
  <path stroke="currentcolor" stroke-linecap="round" stroke-linejoin="round" stroke-miterlimit="10" stroke-width="1.5" d="M11.42 17.47v-.93a1 1 0 0 1 1-1c.96 0 1.35-.68.87-1.51a1 1 0 0 1 .37-1.37l.91-.53a.9.9 0 0 1 1.21.32l.06.1c.48.83 1.26.83 1.74 0l.06-.1a.9.9 0 0 1 1.21-.32l.91.53a1 1 0 0 1 .37 1.37c-.48.83-.09 1.5.87 1.5a1 1 0 0 1 1 1v.94a1 1 0 0 1-1 1c-.96 0-1.35.68-.87 1.5a1 1 0 0 1-.37 1.38l-.91.53a.9.9 0 0 1-1.21-.32l-.06-.1c-.48-.83-1.26-.83-1.74 0l-.06.1a.9.9 0 0 1-1.21.32l-.91-.53a1 1 0 0 1-.37-1.37c.48-.83.09-1.51-.87-1.51a1 1 0 0 1-1-1"/>
</svg>
